src/assets/icons/briefcase-purple.svg

<svg preserveAspectRatio="xMinYMin meet" viewBox="0 0 60 60" xmlns="http://www.w3.org/2000/svg"><g fill="none" stroke="#804bc9" stroke-linecap="square" stroke-miterlimit="10" stroke-width="2"><path d="m51 47h-42c-1.1 0-2-.9-2-2v-30c0-1.1.9-2 2-2h42c1.1 0 2 .9 2 2v30c0 1.1-.9 2-2 2zm-26-34v-2c0-1.1.9-2 2-2h6c1.1 0 2 .9 2 2v2"/><path d="m28 27h-15c-3.31 0-6-2.69-6-6v-6c0-1.1.9-2 2-2h42c1.1 0 2 .9 2 2v6c0 3.31-2.69 6-6 6h-15"/><path d="m28 25h4v4h-4z"/></g></svg>

<svg xmlns="http://www.w3.org/2000/svg" viewBox="0 0 60 60" preserveAspectRatio="xMinYMin meet" style="left:0;top:0"><g class="lievo-setrotation"><g class="lievo-setsharp"><g class="lievo-setflip"><g class="lievo-main"><g class="lievo-filledicon lievo-lineicon"><defs><clipPath id="a"><path class="lievo-donotdraw lievo-nohovercolor lievo-nohoverstroke" fill="none" d="M53 17L49 21 12 21 7 17 7 -15 53 -15z"/></clipPath></defs><path fill="none" stroke="#804bc9" stroke-width="2" stroke-linecap="square" stroke-miterlimit="10" d="M51 47H9c-1.1 0-2-.9-2-2V15c0-1.1.9-2 2-2h42c1.1 0 2 .9 2 2v30c0 1.1-.9 2-2 2zM25 13v-2c0-1.1.9-2 2-2h6c1.1 0 2 .9 2 2v2"/><path fill="none" stroke="#804bc9" stroke-width="2" stroke-linecap="square" stroke-miterlimit="10" d="M28 27H13c-3.31 0-6-2.69-6-6v-6c0-1.1.9-2 2-2h42c1.1 0 2 .9 2 2v6c0 3.31-2.69 6-6 6H32"/><path class="lievo-altstroke" fill="none" stroke="#804bc9" stroke-width="2" stroke-linecap="square" stroke-miterlimit="10" d="M28 25H32V29H28z"/></g></g></g></g></g></svg>
